!!!COM:	Martini, Johannes
!!!CDT:	~1440///-~1497//
!!!OTL:	Benedictus dominus deus
!!!AGN:	Motet
!!!SCT:	Mar2009
!!!SCA:	Mar2009
!!!voices:	3
**kern	**kern	**kern
*staff3	*staff2	*staff1
*Ivox	*Ivox	*Ivox
*I"Tenor	*I":Faulx bourdon	*I"Superius
*I'T	*I'Fb	*I'S
*>[A,B,C,D,E,F,G,H,I,J,K,L]	*>[A,B,C,D,E,F,G,H,I,J,K,L]	*>[A,B,C,D,E,F,G,H,I,J,K,L]
*>A	*>A	*>A
*clefGv2	*clefGv2	*clefG2
*k[]	*k[]	*k[]
*M2/1	*M2/1	*M2/1
*met(C)	*met(C)	*met(C)
!!section: Quia visitavit
!!!OMD: Quia visitavit
=1-	=1-	=1-
!!LO:TX:Z=8:t=Choir 1
1A	1e	1a
2c\	2e\	2a/
2c\	2e\	2a/
=2	=2	=2
2c\	2e\	2a/
2c\	2e\	2a/
1c	1e	1a
=3	=3	=3
2B\	2d\	2g/
2A/	2c\	2f/
1B	1d	1g
=4	=4	=4
1A	1e	1a
2c\	2e\	2a/
2c\	2e\	2a/
=5	=5	=5
1c	1e	1a
1B	1d	1g
=6	=6	=6
1A	1c	1f
2G/	2B\	2e/
[2A/	[2c\	[2f/
=7	=7	=7
2A/]	2c\]	2f/]
4G/	4B\	4e/
4F/	4A/	4d/
2E/	2G/	2c/
2D/	[2A/	[2d/
=8	=8	=8
1E	2A/]	2d/]
.	2G/	2c#i/
1Dl	1Al	1dl
=9||	=9||	=9||
*>B	*>B	*>B
!!section: Et erexit
!!!OMD: Et erexit
!!LO:TX:Z=8:t=Choir 2
2.A/	0r	2.f/
4B\	.	4g/
2c\	.	2a/
[2d\	.	[2b-i\
=10	=10	=10
2d\]	0r	2b-\]
2c\	.	1a
1B-i	.	.
.	.	2g/
=11	=11	=11
1A	0r	1a
2c\	.	2a/
2c\	.	2a/
=12	=12	=12
2c\	0r	2a/
2c\	.	2a/
1c	.	1a
=13	=13	=13
2c\	0r	2a/
2.d\	.	2.b-i\
4c\	.	4a/
4B-i\	.	4g/
4A/	.	4f/
=14	=14	=14
1B-i	0r	1g
1A	.	1a
=15	=15	=15
1r	0r	1r
1c	.	1a
=16	=16	=16
2c\	0r	2a/
2c\	.	2a/
1c	.	1a
=17	=17	=17
2B\	0r	2g/
2A/	.	2f/
2B\	.	2g/
[2c\	.	[2a/
=18	=18	=18
2c\]	0r	2a/]
4B\	.	4g/
4A/	.	4f/
2G/	.	2e/
[2A/	.	[2f/
=19	=19	=19
4A/]	0r	4f/]
4G/	.	4e/
2F/	.	1d
1E	.	.
.	.	2c#i/
=20	=20	=20
0Dl	0r	0dl
=21||	=21||	=21||
*>C	*>C	*>C
!!LO:TX:Z=8:t=Choir 1
!!section: Sicut locutus
!!!OMD: Sicut locutus
1A	1c	1f
1B	1d	1g
=22	=22	=22
1c	1e	1a
2c\	2e\	2a/
2c\	2e\	2a/
=23	=23	=23
1c	1e	1a
1B	1d	1g
=24	=24	=24
1A	2.c\	2.f/
.	4d\	4g/
2c\	2e\	2a/
[2d\	[2f\	[2b-i\
=25	=25	=25
2d\]	2f\]	2b-\]
1c	1e	1a
4B\	4d\	4g/
4A/	4c\	4f/
=26	=26	=26
1B	1d	1g
1A	1e	1a
=27	=27	=27
1r	1r	1r
1c	1e	1a
=28	=28	=28
2c\	2e\	2a/
2c\	2e\	2a/
2c\	2e\	2a/
2c\	2e\	2a/
=29	=29	=29
1c	1e	1a
2B\	2d\	2g/
2A/	2c\	2f/
=30	=30	=30
2B\	2d\	2g/
1c	1e	1a
4B\	4d\	4g/
4A/	4c\	4f/
=31	=31	=31
2G/	2B\	2e/
1A	1c	1f
2F/	[2A/	[2d/
=32	=32	=32
1E	2A/]	2d/]
.	2G/	2c#i/
1Dl	1Al	1dl
=33||	=33||	=33||
*>D	*>D	*>D
!!LO:TX:Z=8:t=Choir 2
!!section: Salutem ex
!!!OMD: Salutem ex
1A	0r	1f
2.G/	.	2.e/
4A/	.	4f/
=34	=34	=34
2B\	0r	2g/
2c\	.	1a
1B	.	.
.	.	2g/
=35	=35	=35
1A	0r	1a
1c	.	1a
=36	=36	=36
2c\	0r	2a/
2c\	.	2a/
1c	.	1a
=37	=37	=37
1B	0r	1g
2A/	.	2f/
[2d\	.	[2b-i\
=38	=38	=38
2d\]	0r	2b-\]
2c\	.	1a
1B-i	.	.
.	.	2g/
=39	=39	=39
1A	0r	1a
1r	.	1r
=40	=40	=40
1c	0r	1a
2c\	.	2a/
[2c\	.	[2a/
=41	=41	=41
2c\]	0r	2a/]
2c\	.	2a/
2c\	.	2a/
2c\	.	2a/
=42	=42	=42
1c	0r	1a
1B	.	1g
=43	=43	=43
1A	0r	1f
2B\	.	2g/
[2c\	.	[2a/
=44	=44	=44
2c\]	0r	2a/]
4B\	.	4g/
4A/	.	4f/
2G/	.	2e/
[2A/	.	[2f/
=45	=45	=45
2A/]	0r	2f/]
2F/	.	1d
1E	.	.
.	.	2c#i/
=46	=46	=46
0Dl	0r	0dl
=47||	=47||	=47||
*>E	*>E	*>E
!!LO:TX:Z=8:t=Choir 1
!!section: Ad faciendem
!!!OMD: Ad faciendem
1A	1c	1f
1B	1d	1g
=48	=48	=48
2c\	2e\	2a/
2c\	2e\	2a/
1c	1e	1a
=49	=49	=49
1c	1e	1a
2c\	2e\	2a/
2c\	2e\	2a/
=50	=50	=50
2c\	2e\	2a/
2c\	2e\	2a/
1c	1e	1a
=51	=51	=51
1B-i	1d	1g
2A/	2c\	2f/
2B-i\	2d\	2g/
=52	=52	=52
2c\	2e\	2a/
1d	1f	1b-i
2c\	[2e\	[2a/
=53	=53	=53
1B-i	2e\]	2a/]
.	2d\	2g/
1A	1e	1a
=54	=54	=54
1r	1r	1r
1c	1e	1a
=55	=55	=55
2c\	2e\	2a/
2c\	2e\	2a/
1c	1e	1a
=56	=56	=56
1c	1e	1a
2B\	2d\	2g/
2A/	2c\	2f/
=57	=57	=57
2B\	2d\	2g/
1c	1e	1a
4B\	4d\	4g/
4A/	4c\	4f/
=58	=58	=58
2G/	2B\	2e/
1A	1c	1f
2F/	[2A/	[2d/
=59	=59	=59
1E	2A/]	2d/]
.	2G/	2c#i/
1Dl	1Al	1dl
=60||	=60||	=60||
*>F	*>F	*>F
!!section: Jusjurandum
!!!OMD: Jusjurandum
!!LO:TX:Z=8:t=Choir 2
1A	0r	1f
2B\	.	2g/
2B\	.	2g/
=61	=61	=61
1c	0r	1a
1c	.	1a
=62	=62	=62
2c\	0r	2a/
2c\	.	2a/
1c	.	1a
=63	=63	=63
1c	0r	1a
2c\	.	2a/
2c\	.	2a/
=64	=64	=64
1c	0r	1a
1B	.	1g
=65	=65	=65
2.A/	0r	2.f/
4B\	.	4g/
2c\	.	2a/
[2d\	.	[2b-i\
=66	=66	=66
2d\]	0r	2b-\]
2c\	.	1a
1B-i	.	.
.	.	2g/
=67	=67	=67
1A	0r	1a
1r	.	1r
=68	=68	=68
1c	0r	1a
1c	.	1a
=69	=69	=69
1B	0r	1g
1A	.	1f
=70	=70	=70
2B\	0r	2g/
1c	.	1a
4B\	.	4g/
4A/	.	4f/
=71	=71	=71
2G/	0r	2e/
2.A/	.	2.f/
4G/	.	4e/
2F/	.	[2d/
=72	=72	=72
1E	0r	2d/]
.	.	2c#i/
1Dl	.	1dl
=73||	=73||	=73||
*>G	*>G	*>G
!!LO:TX:Z=8:t=Choir 1
!!section: Ut sine timore
!!!OMD: Ut sine timore
1A	1c	1f
1B	1d	1g
=74	=74	=74
1c	1e	1a
2c\	2e\	2a/
2c\	2e\	2a/
=75	=75	=75
1c	1e	1a
2c\	2e\	2a/
2c\	2e\	2a/
=76	=76	=76
1c	1e	1a
1B-i	2d\	2g/
.	2d\	2g/
=77	=77	=77
2B-i\	2d\	2g/
2B-i\	2d\	2g/
1B-i	1d	1g
=78	=78	=78
1B-i	1d	1g
2A/	2c\	2f/
2B-i\	2d\	2g/
=79	=79	=79
2c\	2e\	2a/
1d	1f	1b-i
2c\	[2e\	[2a/
=80	=80	=80
1B-i	2e\]	2a/]
.	2d\	2g/
1A	1e	1a
=81	=81	=81
1r	1r	1r
2c\	2e\	2a/
2c\	2e\	2a/
=82	=82	=82
1c	1e	1a
2B\	2d\	2g/
2A/	2c\	2f/
=83	=83	=83
2G/	2B\	2e/
1A	1c	1f
4G/	4B\	4e/
4F/	4A/	4d/
=84	=84	=84
2E/	2G/	2c/
2D/	1A	1d
1E	.	.
.	2G/	2c#i/
=85	=85	=85
0Dl	0Al	0dl
=86||	=86||	=86||
*>H	*>H	*>H
!!LO:TX:Z=8:t=Choir 2
!!section: In sanctitate
!!!OMD: In sanctitate
1A	0r	1f
1B	.	1g
=87	=87	=87
2c\	0r	2a/
2c\	.	2a/
1c	.	1a
=88	=88	=88
2c\	0r	2a/
2c\	.	2a/
2c\	.	2a/
2c\	.	2a/
=89	=89	=89
1c	0r	1a
1B	.	1g
=90	=90	=90
1A	0r	1f
2.G/	.	2.e/
4A/	.	4f/
=91	=91	=91
2B\	0r	2g/
2A/	.	1a
1B	.	.
.	.	2g#i/
=92	=92	=92
1A	0r	1a
1r	.	1r
=93	=93	=93
2c\	0r	2a/
2c\	.	2a/
1c	.	1a
=94	=94	=94
1B	0r	1g
1A	.	1f
=95	=95	=95
2B\	0r	2g/
1c	.	1a
4B\	.	4g/
4A/	.	4f/
=96	=96	=96
2G/	0r	2e/
1A	.	1f
4G/	.	4e/
4F/	.	4d/
=97	=97	=97
2E/	0r	2c/
2D/	.	1d
1E	.	.
.	.	2c#i/
=98	=98	=98
0Dl	0r	0dl
=99||	=99||	=99||
*>I	*>I	*>I
!!LO:TX:Z=8:t=Choir 1
!!section: Et tu puer
!!!OMD: Et tu puer
1A	1c	1f
1B	1d	1g
=100	=100	=100
1c	1e	1a
1c	1e	1a
=101	=101	=101
2c\	2e\	2a/
2c\	2e\	2a/
1c	1e	1a
=102	=102	=102
1c	1e	1a
2c\	2e\	2a/
2c\	2e\	2a/
=103	=103	=103
1c	1e	1a
1B	1d	1g
=104	=104	=104
2.A/	2.c\	2.f/
4B\	4d\	4g/
2c\	2e\	2a/
[2d\	[2f\	[2b-i\
=105	=105	=105
2d\]	2f\]	2b-\]
2c\	1e	1a
1B-i	.	.
.	2d\	2g/
=106	=106	=106
1A	1e	1a
1r	1r	1r
=107	=107	=107
2c\	2e\	2a/
2c\	2e\	2a/
2c\	2e\	2a/
2c\	2e\	2a/
=108	=108	=108
1A	1e	1a
2c\	2e\	2a/
2c\	2e\	2a/
=109	=109	=109
2c\	2e\	2a/
2c\	2e\	2a/
1c	1e	1a
=110	=110	=110
2B\	2d\	2g/
2.c\	2.e\	2.a/
4B\	4d\	4g/
2A/	[2c\	[2f/
=111	=111	=111
1G	2c\]	2f/]
.	2B\	2e/
1F	1c	1f
=112	=112	=112
1A	1r	1r
1B	1d	1g
=113	=113	=113
2B\	2d\	2g/
2B\	2d\	2g/
1c	1e	1a
=114	=114	=114
2B\	2d\	2g/
2A/	2c\	2f/
2G/	2B\	2e/
[2A/	[2c\	[2f/
=115	=115	=115
2A/]	2c\]	2f/]
4G/	4B\	4e/
4F/	4A/	4d/
2E/	2G/	2c/
2D/	[2A/	[2d/
=116	=116	=116
1E	2A/]	2d/]
.	2G/	2c#i/
1Dl	1Al	1dl
=117||	=117||	=117||
*>J	*>J	*>J
!!section: Ad dandam
!!!OMD: Ad dandam
!!LO:TX:Z=8:t=Choir 2
1A	0r	1f
1B	.	1g
=118	=118	=118
1c	0r	1a
1c	.	1a
=119	=119	=119
2c\	0r	2a/
2c\	.	2a/
1c	.	1a
=120	=120	=120
2c\	0r	2a/
2c\	.	2a/
1c	.	1a
=121	=121	=121
1B	0r	1g
2.A/	.	2.f/
4B\	.	4g/
=122	=122	=122
2c\	0r	2a/
1d	.	1b-i
2c\	.	[2a/
=123	=123	=123
1B-i	0r	2a/]
.	.	2g/
1A	.	1a
=124	=124	=124
1r	0r	1r
1c	.	1a
=125	=125	=125
2c\	0r	2a/
2c\	.	2a/
2c\	.	2a/
2c\	.	2a/
=126	=126	=126
1c	0r	1a
1B	.	1g
=127	=127	=127
1A	0r	1f
2G/	.	2e/
[2A/	.	[2f/
=128	=128	=128
2A/]	0r	2f/]
2G/	.	2e/
2F/	.	2d/
[2G/	.	[2e/
=129	=129	=129
2G/]	0r	2e/]
2F/	.	1d
1E	.	.
.	.	2c#i/
=130	=130	=130
0Dl	0r	0dl
=131||	=131||	=131||
*>K	*>K	*>K
!!section: Perviscera
!!!OMD: Perviscera
!!LO:TX:Z=8:t=Choir 1
1A	1c	1f
2B\	2d\	2g/
2B\	2d\	2g/
=132	=132	=132
1c	1e	1a
1c	1e	1a
=133	=133	=133
2c\	2e\	2a/
2c\	2e\	2a/
2c\	2e\	2a/
2c\	2e\	2a/
=134	=134	=134
1c	1e	1a
1B	1d	1g
=135	=135	=135
2.A/	2.c\	2.f/
4B\	4d\	4g/
2c\	2e\	2a/
[2d\	[2f\	[2b-i\
=136	=136	=136
2d\]	2f\]	2b-\]
2c\	1e	1a
1B-i	.	.
.	2d\	2g/
=137	=137	=137
1A	1e	1a
1r	1r	1r
=138	=138	=138
1c	1e	1a
1c	1e	1a
=139	=139	=139
1c	1e	1a
2c\	2e\	2a/
2c\	2e\	2a/
=140	=140	=140
1c	1e	1a
1c	1e	1a
=141	=141	=141
1B	1d	1g
1A	1c	1f
=142	=142	=142
2B\	2d\	2g/
1c	1e	1a
4B\	4d\	4g/
4A/	4c\	4f/
=143	=143	=143
2G/	2B\	2e/
1A	1c	1f
2F/	[2A/	[2d/
=144	=144	=144
1E	2A/]	2d/]
.	2G/	2c#i/
1Dl	1Al	1dl
=145||	=145||	=145||
*>L	*>L	*>L
!!LO:TX:Z=8:t=Choir 2
!!section: Illuminare
!!!OMD: Illuminare
1A	0r	1f
1B	.	1g
=146	=146	=146
2c\	0r	2a/
2c\	.	2a/
1c	.	1a
=147	=147	=147
1c	0r	1a
2c\	.	2a/
2c\	.	2a/
=148	=148	=148
2c\	0r	2a/
2c\	.	2a/
1c	.	1a
=149	=149	=149
2c\	0r	2a/
2c\	.	2a/
1c	.	1a
=150	=150	=150
1B	0r	1g
2.A/	.	2.f/
4B\	.	4g/
=151	=151	=151
2c\	0r	2a/
1d	.	1b-i
2c\	.	[2a/
=152	=152	=152
1B-i	0r	2a/]
.	.	2g/
1A	.	1a
=153	=153	=153
1r	0r	1r
2c\	.	2a/
2c\	.	2a/
=154	=154	=154
2c\	0r	2a/
2c\	.	2a/
1c	.	1a
=155	=155	=155
2B\	0r	2g/
2A/	.	2f/
1B	.	1g
=156	=156	=156
1A	0r	1a
1c	.	1a
=157	=157	=157
1c	0r	1a
2d\	.	2b-i\
[2c\	.	[2a/
=158	=158	=158
2c\]	0r	2a/]
2B\	.	1g
1A	.	.
.	.	2f#i/
=159	=159	=159
0Gl	0r	0gl
==	==	==
*-	*-	*-
!!!RDF**kern: l=long note in original notation
!!!RDF**kern: i=editorial accidental
!!!ENC:	Chris Gage 12-04-2013
!!!END:	2014/10/09/
!!!EED:	Jesse Rodin
!!!EEV:	2014/10/13/
!!!ONB:	Translated from MusicXML and edited on 2014/10/13/ by Craig Sapp
!!muse2ps: C^@{COM}^i2I150v90,90,150Q16
